flaticon/business/presentation.svg

<svg xmlns="http://www.w3.org/2000/svg" width="32" height="32" viewBox="0 0 24 24">
    <path d="M 24 3.199219 L 24 0 L 0 0 L 0 3.199219 L 0.800781 3.199219 L 0.800781 19.199219 L 0.398438 19.199219 C 0.179688 19.199219 0 19.378906 0 19.601562 C 0 19.820312 0.179688 20 0.398438 20 L 11.601562 20 L 11.601562 20.800781 C 11.601562 20.820312 11.609375 20.835938 11.609375 20.855469 C 10.917969 21.027344 10.398438 21.652344 10.398438 22.398438 C 10.398438 23.28125 11.117188 24 12 24 C 12.882812 24 13.601562 23.28125 13.601562 22.398438 C 13.601562 21.652344 13.082031 21.027344 12.390625 20.855469 C 12.390625 20.835938 12.398438 20.820312 12.398438 20.800781 L 12.398438 20 L 23.601562 20 C 23.820312 20 24 19.820312 24 19.601562 C 24 19.378906 23.820312 19.199219 23.601562 19.199219 L 23.199219 19.199219 L 23.199219 3.199219 Z M 12.800781 22.398438 C 12.800781 22.839844 12.441406 23.199219 12 23.199219 C 11.558594 23.199219 11.199219 22.839844 11.199219 22.398438 C 11.199219 21.957031 11.558594 21.601562 12 21.601562 C 12.441406 21.601562 12.800781 21.957031 12.800781 22.398438 Z M 0.800781 0.800781 L 23.199219 0.800781 L 23.199219 2.398438 L 0.800781 2.398438 Z M 22.398438 19.199219 L 1.601562 19.199219 L 1.601562 3.199219 L 22.398438 3.199219 Z M 22.398438 19.199219"/>
    <path d="M8.800781 8.800781C8.800781 9.019531 8.621094 9.199219 8.398438 9.199219 8.179688 9.199219 8 9.019531 8 8.800781 8 8.578125 8.179688 8.398438 8.398438 8.398438 8.621094 8.398438 8.800781 8.578125 8.800781 8.800781zM8.800781 10.398438C8.800781 10.621094 8.621094 10.800781 8.398438 10.800781 8.179688 10.800781 8 10.621094 8 10.398438 8 10.179688 8.179688 10 8.398438 10 8.621094 10 8.800781 10.179688 8.800781 10.398438zM8.800781 12C8.800781 12.222656 8.621094 12.398438 8.398438 12.398438 8.179688 12.398438 8 12.222656 8 12 8 11.777344 8.179688 11.601562 8.398438 11.601562 8.621094 11.601562 8.800781 11.777344 8.800781 12zM8.800781 13.601562C8.800781 13.820312 8.621094 14 8.398438 14 8.179688 14 8 13.820312 8 13.601562 8 13.378906 8.179688 13.199219 8.398438 13.199219 8.621094 13.199219 8.800781 13.378906 8.800781 13.601562zM8.800781 15.199219C8.800781 15.421875 8.621094 15.601562 8.398438 15.601562 8.179688 15.601562 8 15.421875 8 15.199219 8 14.980469 8.179688 14.800781 8.398438 14.800781 8.621094 14.800781 8.800781 14.980469 8.800781 15.199219zM8.800781 15.199219"/>
    <path d="M 3.199219 16.800781 L 20.800781 16.800781 C 21.019531 16.800781 21.199219 16.621094 21.199219 16.398438 C 21.199219 16.179688 21.019531 16 20.800781 16 L 19.601562 16 L 19.601562 7.199219 L 17.199219 7.199219 L 17.199219 6 L 14 6 L 14 8.800781 L 11.601562 8.800781 L 11.601562 11.199219 L 10 11.199219 L 10 7.199219 L 6.800781 7.199219 L 6.800781 9.601562 L 4.398438 9.601562 L 4.398438 16 L 3.199219 16 C 2.980469 16 2.800781 16.179688 2.800781 16.398438 C 2.800781 16.621094 2.980469 16.800781 3.199219 16.800781 Z M 18.800781 8 L 18.800781 16 L 17.199219 16 L 17.199219 8 Z M 14.800781 6.800781 L 16.398438 6.800781 L 16.398438 16 L 14.800781 16 Z M 12.398438 9.601562 L 14 9.601562 L 14 16 L 12.398438 16 Z M 11.601562 12 L 11.601562 16 L 10 16 L 10 12 Z M 8.800781 8 C 8.800781 8.222656 8.980469 8.398438 9.199219 8.398438 L 9.199219 9.199219 C 8.980469 9.199219 8.800781 9.378906 8.800781 9.601562 C 8.800781 9.820312 8.980469 10 9.199219 10 L 9.199219 10.800781 C 8.980469 10.800781 8.800781 10.980469 8.800781 11.199219 C 8.800781 11.421875 8.980469 11.601562 9.199219 11.601562 L 9.199219 12.398438 C 8.980469 12.398438 8.800781 12.578125 8.800781 12.800781 C 8.800781 13.019531 8.980469 13.199219 9.199219 13.199219 L 9.199219 14 C 8.980469 14 8.800781 14.179688 8.800781 14.398438 C 8.800781 14.621094 8.980469 14.800781 9.199219 14.800781 L 9.199219 15.601562 C 8.980469 15.601562 8.800781 15.777344 8.800781 16 L 8 16 C 8 15.777344 7.820312 15.601562 7.601562 15.601562 L 7.601562 14.800781 C 7.820312 14.800781 8 14.621094 8 14.398438 C 8 14.179688 7.820312 14 7.601562 14 L 7.601562 13.199219 C 7.820312 13.199219 8 13.019531 8 12.800781 C 8 12.578125 7.820312 12.398438 7.601562 12.398438 L 7.601562 11.601562 C 7.820312 11.601562 8 11.421875 8 11.199219 C 8 10.980469 7.820312 10.800781 7.601562 10.800781 L 7.601562 10 C 7.820312 10 8 9.820312 8 9.601562 C 8 9.378906 7.820312 9.199219 7.601562 9.199219 L 7.601562 8.398438 C 7.820312 8.398438 8 8.222656 8 8 Z M 5.199219 10.398438 L 6.800781 10.398438 L 6.800781 16 L 5.199219 16 Z M 5.199219 10.398438"/>
</svg>

<svg xmlns="http://www.w3.org/2000/svg" width="32" height="32" viewBox="0 0 24 24">
    <path d="M24 3.2V0H0v3.2h.8v16H.399a.401.401 0 0 0 0 .8h11.204v.8c0 .02.007.036.007.055a1.596 1.596 0 0 0-1.21 1.543c0 .883.718 1.602 1.601 1.602s1.602-.719 1.602-1.602c0-.746-.52-1.37-1.211-1.543 0-.02.007-.035.007-.054V20h11.204a.4.4 0 0 0 0-.8h-.403v-16zM12.8 22.397a.802.802 0 0 1-1.6 0c0-.441.359-.796.8-.796.441 0 .8.355.8.796zM.8.801h22.4v1.597H.8zm21.598 18.398H1.602v-16h20.796zm0 0"/>
    <path d="M8.8 8.8A.401.401 0 1 1 8 8.797.401.401 0 0 1 8.8 8.8zm0 0M8.8 10.398a.401.401 0 1 1 0 0zm0 0M8.8 12c0 .223-.179.398-.402.398a.398.398 0 1 1 0-.796c.223 0 .403.175.403.398zm0 0M8.8 13.602A.401.401 0 1 1 8 13.597a.401.401 0 0 1 .802.005zm0 0M8.8 15.2a.401.401 0 1 1 0 0zm0 0"/>
    <path d="M3.2 16.8h17.6a.401.401 0 0 0 0-.8h-1.198V7.2h-2.403V6H14v2.8h-2.398v2.4H10v-4H6.8v2.402H4.399V16H3.2a.4.4 0 0 0 0 .8zM18.8 8v8h-1.6V8zm-4-1.2h1.598V16h-1.597zm-2.402 2.802H14V16h-1.602zM11.602 12v4H10v-4zM8.8 8c0 .223.18.398.398.398V9.2a.401.401 0 0 0 0 .801v.8a.4.4 0 0 0 0 .802v.796a.401.401 0 0 0 0 .801V14a.4.4 0 0 0 0 .8v.802a.398.398 0 0 0-.398.398H8a.398.398 0 0 0-.398-.398V14.8a.401.401 0 0 0 0-.801v-.8a.4.4 0 0 0 0-.802v-.796a.401.401 0 0 0 0-.801V10a.4.4 0 0 0 0-.8v-.802A.398.398 0 0 0 8 8zm-3.602 2.398h1.602V16H5.199zm0 0"/>
</svg>
